X: 2
T: The Bag Of Spuds
R: reel
M: 4/4
L: 1/8
K: Ador
|:A2eA cAeA|ABcd eBdB|G2dG BGdB|GB~B2 GBdB|
A2eA cAeA|ABcd eBdB|A2Bd efge|1 dBGA BAAG:|2 dBGA BAA2||
|:a2ea ageg|agbg agef|gedc BGBd|~g3a bgeg|
a2ea ageg|agbg ageg|d^cde ~g3e|1 dBGA BAA2:|2 dBGA BAAG||


Tune 579	Setting 22921

